X: 39888
T: Thistle Schottische, The
R: barndance
M: 4/4
K: Gmajor
(3Bc^c|d2 (3BAG E2 _E2|D6 (3Bc^c|d2 (3BAG E>FG>^G|A6 B>F|
A>GB,>C D2 (3GFG|A>A,B>B, c>C ^c2|d>ed>B A>GE>F|G6 (3Bc^c|
d>B (3BAG E>G_E>G|D4- D>A (3Bc^c|d>G (3BAG A>EF>G|A>fe>^c d2 B>F|
A>GE>G D>G (3EFG|A>A,B>B, c2 (3Bc^c|d2- d>B A>GE>F|G2 (3AGF G>D||
(3B,C^C|D4- D>B,C>B,|E4- E>A^G>A|B>A (3A^GA d>A (3AGA|D6 B>F|
A>GB,>C D>G (3GFG|A>A,B>B, c>C ^c2|d>^cd>B A>GE>F|G4- G>B,C>^C|
D4- D>B,C>B,|E6 F>G|(3ABA ^G>A d>cG>A|B6 B>F|
A>GE>G D2 (3EFG|A>A,B>B, c2 ^c2|(3ddd d>B A>GE>F|G2 (3GGF G>A||
B>c|(3dgd (3BdB G>Bd>B|(3cec (3AcA E>ec>A|(3FAc f>e (3ded (3cBA|G2 (3BGE D2 (3Bc^c|
(3dgd (3BdB (3GBG (3DGB|(3cec (3AcA E2 A>G|(3FAc f>e (3ded (3cBA|G2 B2 c2 ^c2|
(3dgd (3BdB (3GBd (3gdB|(3cec (3AcA (3EAc (3ecA|(3FAc (3fgf (3ded (3cBA|(3GBA (3GFE D2 (3Bc^c|
(3dgd B2 (3GB/c/d (3gdB|(3cec A2 (3EA/B/c (3ecA|(3FAc (3fge (3dec (3BcA|(3GB/c/d (3gdB G2||

